// The MIT License
// Copyright © 2015 Inigo Quilez
// Permission is hereby granted, free of charge, to any person obtaining a copy of this software and associated documentation files (the "Software"), to deal in the Software without restriction, including without limitation the rights to use, copy, modify, merge, publish, distribute, sublicense, and/or sell copies of the Software, and to permit persons to whom the Software is furnished to do so, subject to the following conditions: The above copyright notice and this permission notice shall be included in all copies or substantial portions of the Software. THE SOFTWARE IS PROVIDED "AS IS", WITHOUT WARRANTY OF ANY KIND, EXPRESS OR IMPLIED, INCLUDING BUT NOT LIMITED TO THE WARRANTIES OF MERCHANTABILITY, FITNESS FOR A PARTICULAR PURPOSE AND NONINFRINGEMENT. IN NO EVENT SHALL THE AUTHORS OR COPYRIGHT HOLDERS BE LIABLE FOR ANY CLAIM, DAMAGES OR OTHER LIABILITY, WHETHER IN AN ACTION OF CONTRACT, TORT OR OTHERWISE, ARISING FROM, OUT OF OR IN CONNECTION WITH THE SOFTWARE OR THE USE OR OTHER DEALINGS IN THE SOFTWARE.

shader_type spatial;

uniform sampler2D albedo : source_color;
uniform sampler2D normalmap : hint_normal;
uniform float uv_scale;

vec4 hash4( vec2 p ) { return fract(sin(vec4( 1.0+dot(p,vec2(37.0,17.0)), 
                                              2.0+dot(p,vec2(11.0,47.0)),
                                              3.0+dot(p,vec2(41.0,29.0)),
                                              4.0+dot(p,vec2(23.0,31.0))))*103.0); }

vec4 textureNoTile( sampler2D samp, in vec2 uv )
{
    vec2 iuv = floor( uv );
    vec2 fuv = fract( uv );


    vec4 ofa = hash4( iuv + vec2(0.0,0.0) );
    vec4 ofb = hash4( iuv + vec2(1.0,0.0) );
    vec4 ofc = hash4( iuv + vec2(0.0,1.0) );
    vec4 ofd = hash4( iuv + vec2(1.0,1.0) );
    
    vec2 ddx = dFdx( uv );
    vec2 ddy = dFdy( uv );

    // transform per-tile uvs
    ofa.zw = sign(ofa.zw-0.5);
    ofb.zw = sign(ofb.zw-0.5);
    ofc.zw = sign(ofc.zw-0.5);
    ofd.zw = sign(ofd.zw-0.5);
    
    // uv's, and derivarives (for correct mipmapping)
    vec2 uva = uv*ofa.zw + ofa.xy; vec2 ddxa = ddx*ofa.zw; vec2 ddya = ddy*ofa.zw;
    vec2 uvb = uv*ofb.zw + ofb.xy; vec2 ddxb = ddx*ofb.zw; vec2 ddyb = ddy*ofb.zw;
    vec2 uvc = uv*ofc.zw + ofc.xy; vec2 ddxc = ddx*ofc.zw; vec2 ddyc = ddy*ofc.zw;
    vec2 uvd = uv*ofd.zw + ofd.xy; vec2 ddxd = ddx*ofd.zw; vec2 ddyd = ddy*ofd.zw;
        
    // fetch and blend
    vec2 b = smoothstep(0.25,0.75,fuv);
    
    return mix( mix( textureGrad( samp, uva, ddxa, ddya ), 
                     textureGrad( samp, uvb, ddxb, ddyb ), b.x ), 
                mix( textureGrad( samp, uvc, ddxc, ddyc ),
                     textureGrad( samp, uvd, ddxd, ddyd ), b.x), b.y );
}

void fragment() {
	vec2 uv = UV * uv_scale;
	ALBEDO = textureNoTile(albedo, uv).rgb;
	NORMAL_MAP = textureNoTile(normalmap, uv).rgb;
	NORMAL_MAP_DEPTH = 3.0;
}
